public/avatar/body/182.svg

<svg xmlns:xlink="http://www.w3.org/1999/xlink" height="82" width="84.85" xmlns="http://www.w3.org/2000/svg"><g transform="translate(37.4 42.25)"><use height="38" transform="translate(-11.95 -17.45)" width="32.05" xlink:href="#a"/><use height="38.95" transform="translate(-12.45 -17.95)" width="33.05" xlink:href="#b"/><use height="19.7" transform="translate(-13.7 3.75)" width="35" xlink:href="#c"/></g><defs><path d="M27.35 7.4q2.15 4.15 3.55 8.75 1.45 4.7 1.15 9.5-.35 4.95-4.2 8.1-3.8 3.2-8.75 4.05l-2.6.2q-3.6 0-7.05-1.15-4.65-1.6-7.1-5.5Q-.2 27.4.05 23q.2-4.4 2-9.3Q3.85 8.75 7 5.05 10.1 1.3 14.7.1l1.8-.1q1.9.05 3.7.8 4.75 2.05 7.15 6.6" fill="#ffe6bf" fill-rule="evenodd" transform="translate(-.05)" id="d"/><path d="M27.35 7.4Q24.95 2.85 20.2.8 17.55-.3 14.7.1 10.1 1.3 7 5.05q-3.15 3.7-4.95 8.65-1.8 4.9-2 9.3-.25 4.4 2.3 8.35 2.45 3.9 7.1 5.5 4.65 1.55 9.65.95 4.95-.85 8.75-4.05 3.85-3.15 4.2-8.1.3-4.8-1.15-9.5-1.4-4.6-3.55-8.75Z" fill="none" stroke="#170001" stroke-linecap="round" stroke-linejoin="round" transform="translate(.45 .5)" id="e"/><use height="38" width="32.05" xlink:href="#d" id="a"/><use height="38.95" width="33.05" xlink:href="#e" id="b"/><g id="c" fill-rule="evenodd"><path d="M-11.8 16.4q-2.2-5.6-1.85-12.3l.75-.35q2.65.5 5 1.55Q-3.85 7 .25 7.25q10.6.95 20.6-3.5l.45.75-.3.4-.05 1.95q.1 6.1-.95 12.05-.25 1.25-1.4 1.65-12.4 4.9-25.5 1.55-1.8-.4-2.65-1.35l.3.05 1.1.15q-1.2-6.45-1.6-12.9l-.8-.45q-.1-.1-.25-.15l-1.85-1.15q-.1 5.1.85 10.1M4.85 8.8l5.6.95 2.65-1.1 7.65-4.3L4.85 8.8M20 6.3l-1.1.85-1.45 13.25.85-.1.55-1.25Q20.5 12.85 20 6.3M8.2 22.35l2.6-.45q1.6-5.85 1.4-12.1l-.9.35-.95.1-.9-.1-.65-.25-.7-.25-1.45-.15-1.75-.2.1 3.4q.1 5.05-.35 10.05l3.55-.4M3.25 8.6v14.55l.8.3.2-14.85h-1m-5.2.95L1 9l1-.25L.25 8.3q-4.6-1-8.9-2.7l-4.5-1.15 3.3 1.75 5.95 3.2.15.05 1.4.4.4-.3m1.35 12.8 3.45.35-.2-13.4-2.9.3-1.5.45-.45.3-2.3-.5q.1 6.1 1.35 12.05l2.55.45m-7.5-13.7q-.5 6.15.6 12.3l.95.2L-7.5 9l-.6-.35" fill="#1b181e" transform="translate(13.7 -3.75)"/><path d="M9.45 10.15 8.2 22.35l-3.55.4q.45-5 .35-10.05l-.1-3.4 1.75.2 1.45.15.7.25.65.25m-11.2-.1 1.5-.45 2.9-.3.2 13.4-3.45-.35-1.15-12.3" fill="#b30002" transform="translate(13.7 -3.75)"/><path d="m9.45 10.15.9.1.95-.1.9-.35q.2 6.25-1.4 12.1l-2.6.45 1.25-12.2M-.6 22.35l-2.55-.45Q-4.4 15.95-4.5 9.85l2.3.5.45-.3 1.15 12.3" fill="#fff" transform="translate(13.7 -3.75)"/><path d="M3.25 8.6h1l-.2 14.85-.8-.3V8.6" fill="#b3b8b8" transform="translate(13.7 -3.75)"/><path d="M-11.8 16.4q-.95-5-.85-10.1l1.85 1.15-1.25-.7q.2 6.2 1.45 12.25l.3 1.55-.45-.2-.45-1.15-.6-2.8m1.25-8.8.8.45q.4 6.45 1.6 12.9l-1.1-.15-1.35-12.25.05-.95M13.1 8.65q-1.55-1.7-5.2-.5l-3.05.65 15.9-4.45-7.65 4.3M20 6.3q.5 6.55-1.15 12.75l-.55 1.25-.85.1L18.9 7.15 20 6.3M-1.95 9.55l-.4.3-1.4-.4 1.8.1M-3.9 9.4l-5.95-3.2 1.2-.6q4.3 1.7 8.9 2.7L2 8.75-.15 8.7l-3.75.7m-4.2-.75.6.35.95 12.15-.95-.2q-1.1-6.15-.6-12.3" fill="#302f31" transform="translate(13.7 -3.75)"/><path d="M-10.8 7.45q.15.05.25.15l-.05.95 1.35 12.25-.3-.05-.75-.2-.3-1.55q-1.25-6.05-1.45-12.25l1.25.7m23.9 1.2-2.65 1.1-5.6-.95 3.05-.65q3.65-1.2 5.2.5M2 8.75 1 9l-2.95.55-1.8-.1-.15-.05 3.75-.7L2 8.75M-9.85 6.2l-3.3-1.75 4.5 1.15-1.2.6" fill="#656565" transform="translate(13.7 -3.75)"/></g></defs></svg>

<?xml version="1.0" encoding="UTF-8" standalone="no"?>
<svg xmlns:xlink="http://www.w3.org/1999/xlink" height="82.0px" width="84.85px" xmlns="http://www.w3.org/2000/svg">
  <g transform="matrix(1.0, 0.0, 0.0, 1.0, 37.4, 42.25)">
    <use height="38.0" transform="matrix(1.0, 0.0, 0.0, 1.0, -11.95, -17.45)" width="32.05" xlink:href="#sprite0"/>
    <use height="38.95" transform="matrix(1.0, 0.0, 0.0, 1.0, -12.45, -17.95)" width="33.05" xlink:href="#sprite1"/>
    <use height="19.7" transform="matrix(1.0, 0.0, 0.0, 1.0, -13.7, 3.75)" width="35.0" xlink:href="#shape2"/>
  </g>
  <defs>
    <g id="sprite0" transform="matrix(1.0, 0.0, 0.0, 1.0, -0.05, 0.0)">
      <use height="38.0" transform="matrix(1.0, 0.0, 0.0, 1.0, 0.05, 0.0)" width="32.05" xlink:href="#shape0"/>
    </g>
    <g id="shape0" transform="matrix(1.0, 0.0, 0.0, 1.0, -0.05, 0.0)">
      <path d="M27.35 7.4 Q29.5 11.55 30.9 16.15 32.35 20.85 32.05 25.65 31.7 30.6 27.85 33.75 24.05 36.95 19.1 37.8 L16.5 38.0 Q12.9 38.0 9.45 36.85 4.8 35.25 2.35 31.35 -0.2 27.4 0.05 23.0 0.25 18.6 2.05 13.7 3.85 8.75 7.0 5.05 10.1 1.3 14.7 0.1 L16.5 0.0 Q18.4 0.05 20.2 0.8 24.95 2.85 27.35 7.4" fill="#ffe6bf" fill-rule="evenodd" stroke="none"/>
    </g>
    <g id="sprite1" transform="matrix(1.0, 0.0, 0.0, 1.0, 0.45, 0.5)">
      <use height="38.95" transform="matrix(1.0, 0.0, 0.0, 1.0, -0.45, -0.5)" width="33.05" xlink:href="#shape1"/>
    </g>
    <g id="shape1" transform="matrix(1.0, 0.0, 0.0, 1.0, 0.45, 0.5)">
      <path d="M27.35 7.4 Q24.95 2.85 20.2 0.8 17.55 -0.3 14.7 0.1 10.1 1.3 7.0 5.05 3.85 8.75 2.05 13.7 0.25 18.6 0.05 23.0 -0.2 27.4 2.35 31.35 4.8 35.25 9.45 36.85 14.1 38.4 19.1 37.8 24.05 36.95 27.85 33.75 31.7 30.6 32.05 25.65 32.35 20.85 30.9 16.15 29.5 11.55 27.35 7.4 Z" fill="none" stroke="#170001" stroke-linecap="round" stroke-linejoin="round" stroke-width="1.0"/>
    </g>
    <g id="shape2" transform="matrix(1.0, 0.0, 0.0, 1.0, 13.7, -3.75)">
      <path d="M-11.8 16.4 Q-14.0 10.8 -13.65 4.1 L-12.9 3.75 Q-10.25 4.25 -7.9 5.3 -3.85 7.0 0.25 7.25 10.85 8.2 20.85 3.75 L21.3 4.5 21.0 4.9 20.95 6.85 Q21.05 12.95 20.0 18.9 19.75 20.15 18.6 20.55 6.2 25.45 -6.9 22.1 -8.7 21.7 -9.55 20.75 L-9.25 20.8 -8.15 20.95 Q-9.35 14.5 -9.75 8.05 L-10.55 7.6 Q-10.65 7.5 -10.8 7.45 L-12.65 6.3 Q-12.75 11.4 -11.8 16.4 M4.85 8.8 L10.45 9.75 13.1 8.65 20.75 4.35 4.85 8.8 M20.0 6.3 L18.9 7.15 17.45 20.4 18.3 20.3 18.85 19.05 Q20.5 12.85 20.0 6.3 M8.2 22.35 L10.8 21.9 Q12.4 16.05 12.2 9.8 L11.3 10.15 10.35 10.25 9.45 10.15 8.8 9.9 8.1 9.65 6.65 9.5 4.9 9.3 5.0 12.7 Q5.1 17.75 4.65 22.75 L8.2 22.35 M3.25 8.6 L3.25 23.15 4.05 23.45 4.25 8.6 3.25 8.6 M-1.95 9.55 L1.0 9.0 2.0 8.75 0.25 8.3 Q-4.35 7.3 -8.65 5.6 L-13.15 4.45 -9.85 6.2 -3.9 9.4 -3.75 9.45 -2.35 9.85 -1.95 9.55 M-0.6 22.35 L2.85 22.7 2.65 9.3 -0.25 9.6 -1.75 10.05 -2.2 10.35 -4.5 9.85 Q-4.4 15.95 -3.15 21.9 L-0.6 22.35 M-8.1 8.65 Q-8.6 14.8 -7.5 20.95 L-6.55 21.15 -7.5 9.0 -8.1 8.65" fill="#1b181e" fill-rule="evenodd" stroke="none"/>
      <path d="M9.45 10.15 L8.2 22.35 4.65 22.75 Q5.1 17.75 5.0 12.7 L4.9 9.3 6.65 9.5 8.1 9.65 8.8 9.9 9.45 10.15 M-1.75 10.05 L-0.25 9.6 2.65 9.3 2.85 22.7 -0.6 22.35 -1.75 10.05" fill="#b30002" fill-rule="evenodd" stroke="none"/>
      <path d="M9.45 10.15 L10.35 10.25 11.3 10.15 12.2 9.8 Q12.4 16.05 10.8 21.9 L8.2 22.35 9.45 10.15 M-0.6 22.35 L-3.15 21.9 Q-4.4 15.95 -4.5 9.85 L-2.2 10.35 -1.75 10.05 -0.6 22.35" fill="#ffffff" fill-rule="evenodd" stroke="none"/>
      <path d="M3.25 8.6 L4.25 8.6 4.05 23.45 3.25 23.15 3.25 8.6" fill="#b3b8b8" fill-rule="evenodd" stroke="none"/>
      <path d="M-11.8 16.4 Q-12.75 11.4 -12.65 6.3 L-10.8 7.45 -12.05 6.75 Q-11.85 12.95 -10.6 19.0 L-10.3 20.55 -10.75 20.35 -11.2 19.2 -11.8 16.4 M-10.55 7.6 L-9.75 8.05 Q-9.35 14.5 -8.15 20.95 L-9.25 20.8 -10.6 8.55 -10.55 7.6 M13.1 8.65 Q11.55 6.95 7.9 8.15 L4.85 8.8 20.75 4.35 13.1 8.65 M20.0 6.3 Q20.5 12.85 18.85 19.05 L18.3 20.3 17.45 20.4 18.9 7.15 20.0 6.3 M-1.95 9.55 L-2.35 9.85 -3.75 9.45 -1.95 9.55 M-3.9 9.4 L-9.85 6.2 -8.65 5.6 Q-4.35 7.3 0.25 8.3 L2.0 8.75 -0.15 8.7 -3.9 9.4 M-8.1 8.65 L-7.5 9.0 -6.55 21.15 -7.5 20.95 Q-8.6 14.8 -8.1 8.65" fill="#302f31" fill-rule="evenodd" stroke="none"/>
      <path d="M-10.8 7.45 Q-10.65 7.5 -10.55 7.6 L-10.6 8.55 -9.25 20.8 -9.55 20.75 -10.3 20.55 -10.6 19.0 Q-11.85 12.95 -12.05 6.75 L-10.8 7.45 M13.1 8.65 L10.45 9.75 4.85 8.8 7.9 8.15 Q11.55 6.95 13.1 8.65 M2.0 8.75 L1.0 9.0 -1.95 9.55 -3.75 9.45 -3.9 9.4 -0.15 8.7 2.0 8.75 M-9.85 6.2 L-13.15 4.45 -8.65 5.6 -9.85 6.2" fill="#656565" fill-rule="evenodd" stroke="none"/>
    </g>
  </defs>
</svg>
